svg/fluentui-system-icons/ic_fluent_wallet_credit_card_20_filled.svg

<svg width="20" height="20" viewBox="0 0 20 20" fill="none" xmlns="http://www.w3.org/2000/svg">
<path d="M12.177 1.33548C11.5006 0.786387 10.5002 0.92721 10.0016 1.64172L6.96094 5.9991H8.18034L10.8217 2.21397C10.9879 1.97581 11.3213 1.92887 11.5468 2.1119L12.3546 2.76762L10.1211 5.99913H11.3367L13.1334 3.39972L14.8168 4.76621C15.0206 4.93157 15.0618 5.22627 14.9113 5.44121L14.5207 5.9991H15.7413C16.1799 5.35572 16.0533 4.48187 15.4471 3.9898L12.177 1.33548ZM4.5 5C3.67157 5 3 5.67157 3 6.5V14.5C3 15.8807 4.11929 17 5.5 17H15C16.1046 17 17 16.1046 17 15V9C17 7.89543 16.1046 7 15 7H4.5C4.22386 7 4 6.77614 4 6.5C4 6.22386 4.22386 6 4.5 6H5.96875L6.66875 5H4.5ZM13.5 12H14.5C14.7761 12 15 12.2239 15 12.5C15 12.7761 14.7761 13 14.5 13H13.5C13.2239 13 13 12.7761 13 12.5C13 12.2239 13.2239 12 13.5 12Z" fill="#212121"/>
</svg>

<svg xmlns="http://www.w3.org/2000/svg" width="20" height="20"><path d="M12.177 1.335a1.5 1.5 0 0 0-2.175.307L6.96 5.999h1.22l2.64-3.785a.5.5 0 0 1 .726-.102l.808.656-2.234 3.231h1.216l1.796-2.6 1.684 1.367a.5.5 0 0 1 .094.675l-.39.558h1.22a1.5 1.5 0 0 0-.294-2.01l-3.27-2.654ZM4.5 5A1.5 1.5 0 0 0 3 6.5v8A2.5 2.5 0 0 0 5.5 17H15a2 2 0 0 0 2-2V9a2 2 0 0 0-2-2H4.5a.5.5 0 0 1 0-1h1.469l.7-1H4.5Zm9 7h1a.5.5 0 0 1 0 1h-1a.5.5 0 0 1 0-1Z"/></svg>
